X:1
T:Hollywood, 87.87 D
T:Hollywood, 87.87 D
T:Bernard Schumacher, 1910
T:Public Domain Courtesy of the Cyber Hymnal™
C:Bernard Schumacher, 1910
Z:Public Domain
Z:Courtesy of the Cyber Hymnal™
%%score ( 1 2 ) ( 3 4 )
L:1/8
Q:1/4=110
M:4/4
K:G
V:1 treble 
V:2 treble 
V:3 bass 
V:4 bass 
V:1
 D2 D2 [EG]2 [DF]2 | [CE]2 [CF]2 [DG]2 [B,D]2 | [DG]2 [DA]2 [DB]2 [EG]2 | [Ec]2 [GB]2 [FA]4 | %4
 D2 D2 [EG]2 [DF]2 | [CE]2 [CF]2 [DG]2 [B,D]2 | [DG]2 [DA]2 [DB]2 [EG]2 | [Ec]2 [GB]2 [FA]4 | %8
 [EA]2 [GB]2 [Dd]2 [FA]2 | [EG]2 [EA]2 [DF]2 D2 | [EA]2 [DA]2 [DB]2 [Dd]2 | [Ed]2 [E^c]2 [Fd]4 | %12
 [Gd]2 [GB]2 [FA]2 [^GB]2 | [Ac]2 [Ad]2 [GB]2 [DG]2 | [Fd]2 [Gd]2 [Ge]2 [Ac]2 | %15
 [GB]2 [FA]2 [DG]4 |] x8 |] %17
V:2
 D2 D2 x4 | x8 | x8 | x8 | D2 D2 x4 | x8 | x8 | x8 | x8 | x6 D2 | x8 | x8 | x8 | x8 | x8 | x8 |] %16
 x8 |] %17
V:3
 [G,B,]2 [F,A,]2 [E,B,]2 [B,,B,]2 | [C,G,]2 [A,,A,]2 [G,,B,]2 [G,,G,]2 | %2
 [B,,G,]2 [D,F,]2 G,2 [E,B,]2 | [A,,A,]2 [B,,D]2 [D,D]4 | [G,B,]2 [F,A,]2 [E,B,]2 [B,,B,]2 | %5
 [C,G,]2 [A,,A,]2 [G,,B,]2 [G,,G,]2 | [B,,G,]2 [D,F,]2 G,2 [E,B,]2 | [A,,A,]2 [B,,D]2 [D,D]4 | %8
 [A,^C]2 [G,D]2 [F,A,]2 [D,D]2 | [E,B,]2 [^C,A,]2 [D,A,]2 [D,F,]2 | [^C,A,]2 [D,F,]2 G,2 [F,A,]2 | %11
 [G,B,]2 A,2 x4 | [D,A,]4 x4 | [G,B,]2 [G,D]2 [D,D]2 [B,,D]2 | [A,,E]2 [F,,D]2 [G,,D]2 [G,B,]2 | %15
 [D,A,]2 [B,,D]2 [C,C]2 [A,,E]2 |] [D,D]2 (DC) [G,,B,]4 |] %17
V:4
 x8 | x8 | x4 G,2 x2 | x8 | x8 | x8 | x4 G,2 x2 | x8 | x8 | x8 | x4 G,2 x2 | x2 A,2 x4 | x8 | x8 | %14
 x8 | x8 |] x2 D,2 x4 |] %17

